!!!!SEGMENT: pl-sa--l-1636--039_anonim--keyboard-piece.krn
!!!cenid: 17xx:746
!!!COM: Anonim
!!!COM-rismID:
!!!CDT:
!!!CNT:
!!!OTL: [Keyboard piece]
!!!PDT:
!!!AGN: Secular
!!!SMS-siglum: PL-SA
!!!SMS-shelfmark: L 1636
!!!SMS-shelfwork: 039 W
!!!SMS-variant:
!!!SMS-altvar:
!!!NIFC-rismSourceID: 1001076516
!!!NIFC-islandoraID:
!!!URL-pdf-islandora:
!!!URL-scan:
!!!ONB-nifc: 10v-11r, skan 0014, s. 3-6
!!!AIN: 2 empty
!!!key:
**kern	**kern
*group1	*group1
*part2	*part1
*staff2	*staff1
*Iempty	*Iempty
*I"	*I"
*clefF4	*clefC1
*k[b-]	*k[b-]
*F:	*F:
*M2/2	*M2/2
*met(c|)	*met(c|)
=1	=1
*	*^
*2\right	*2\right	*2\right
2F\	2cc/	2a\
!LO:TX:a:t=P:problem=4\right&colon; global	!	!LO:TX:a:t=P:problem=4\right&colon; global
4F\	2cc/	4a\
4E\	.	4g\
=2	=2	=2
2D/	4cc/	4f\
.	4b-/	4g\
!LO:TX:a:t=P:problem=znak pauzy 8r nad nutą	!	!
2DD/	2a/	4.g\
!	!	!LO:TX:a:t=P:problem=8\right&colon; global
.	.	8f\
=3	=3	=3
2GG/	4b-/	4g\
.	8b-/L	8g\L
.	8cc/J	8a\J
2BB-/	2dd/	2b-\
=4	=4	=4
4G\	2dd/	4b-\
4F\	.	4a\
2E-X\	4dd/	2g\
.	4ee-X/	.
=5	=5	=5
2F\	4ee-y/	4a\
.	4dd/	4b-\
!LO:TX:a:t=P:problem=znak pauzy 8r nad nutą	!	!
2FF/	2cc/	4b-\
.	.	4a\
=6	=6	=6
2.BB-/	4.dd/	4.b-\
!	!LO:SICs=8ee-:v	!
.	8ee/	8cc\
.	2ff/	2dd\
4D/	.	.
!!LO:LB:g=original
=7	=7	=7
4B-\	2ff/	4dd\
4A\	.	4cc\
2G\	4ff/	2b-\
.	4gg/	.
=8	=8	=8
2A\	4gg/	4cc#X\
.	4ff/	4dd\
!LO:TX:a:t=P:problem=znak pauzy 8r nad nutą	!	!
2AA/	2ee/	4dd\
.	.	4cc#\
=9	=9	=9
2D/	4.ff/	4.dd\
.	8ee-X/	8cc\
!LO:TX:a:t=P:problem=8\right&colon; global	!	!
8.G\L	2dd/	2b-\
!LO:TX:a:t=P:problem=16\right&colon; global	!	!
16A\K	.	.
8G\	.	.
8F\J	.	.
=10	=10	=10
2E-X\	4.ee-X/	4.cc\
.	8dd/	8b-\
8.F\L	2cc/	2a\
16G\K	.	.
8F\	.	.
8E-\J	.	.
=11	=11	=11
2D/	4.dd/	4.b-\
.	8cc/	8a\
8.E-X\L	2b-/	2g\
16F\K	.	.
8E-\	.	.
8D\J	.	.
=12	=12	=12
2C/	4.cc/	4.a\
.	8b-/	8g\
8.D/L	2a/	2f\
!LO:SICs=16E-:v	!	!
16E/K	.	.
8D/	.	.
8C/J	.	.
!!LO:PB:g=original
=13	=13	=13
4BB-/	4b-/	8d\L
.	.	8e\J
8AA/L	4a/	4f\
8BB-/J	.	.
!LO:TX:a:t=P:problem=znak pauzy 8r nad nutą	!	!
2C/	2g/	4f\
.	.	4e\
=14	=14	=14
4FF/	[4a/	[4f\
4AA/	4a/]	4f\]
2GG/	4b-/	4f\
.	4cc/	4e-X\
=15	=15	=15
2FF/	4cc/	2d\
.	4b-/	.
2C/	4g/	4e\
.	4a-X/	4f\
=16	=16	=16
2C/	2g/	4f\
.	.	4e\
2D/	4f/	2d\
.	4b-/	.
=17	=17	=17
!	!LO:TX:a:t=P:problem=uszkodzony papier	!
!	!LO:TX:a:t=P:problem=mało czytelny takt	!
2G\	4b-\	2ryy
!	!LO:TX:a:t=P:problem=uszkodzony papier	!
.	4r	.
2B-\	4g/	4e\
.	4a-X/	4f\
!!LO:LB:g=original
=18	=18	=18
*^	*	*
2BB-/	2ryy	2f/	4e\
.	.	.	4d\
4B-/	2C/	2cc/	2e\
4A-X/	.	.	.
=19	=19	=19	=19
2E/ 2G	2C\	2b-/	4.f\
.	.	.	8e\
2AA/ 2C 2F	2FF\	2f/ 2a	2c\
*v	*v	*	*
*	*v	*v
==	==
*-	*-
!!!system-decoration: [(g1)]
!!!ENC: Anna Matuszewska
!!!END: 2020-12-08
!!!ENC: Andrzej Borzym
!!!END: 2020-06-11
